X:1
T:[ID 2-37]
T:[ID 2-37]
T:Bezeichnung standardisiert: Polonaise Polonoise In dieser Quelle auch als: Polon\"aise
T:Urheber unbekannt Erstbeleg: 1767 (Datum in der schriftlichen Quelle) Datum in der hier transkribierten schriftlichen Quelle: 1776 - 1791
C:Urheber unbekannt
C:Erstbeleg: 1767 (Datum in der schriftlichen Quelle)
C:Datum in der hier transkribierten schriftlichen Quelle: 1776 - 1791
%%score 1 2
L:1/8
M:none
K:C
V:1 treble 
V:2 treble nm="Secondo"
V:1
"^O)" C/B,/C/D/{F} EE/D/{D} CC/B,/ |"^O)" C/B,/C/D/{F} EE/D/{D} CC/B,/ | C/>E/TE G/>B/Tc e>g x/ | %3
 f/g/a/c/ B/c/d/e/{c} BA/G/ |"^O)"!p! g>a .g.f.e.d |!f! c>GA,/4B,/4 CG,/4A,/4 B,/4 C2 | %6
"^O)"!p! g>a .g.f.e.d |!f! c>GA,/4B,/4 CG,/4A,/4 B,/4 C2 | fd/B/ GG, f2 | e/g/B/d/ c2 z x :: %10
"^O)" G/^F/G/A/{c} BB/G/{G} FE/D/ |"^O)" G/^F/G/A/{c} BB/G/{G} FE/D/ | G/B/B d3/4g/g A>c | %13
 B/A/G/^F/ G2 G,2 |"^O)" g>fed"^1)" x2 | BB/c/ d/e/f/e/ dG |"^O)" g>fed"^1)" x2 | %17
 BB/c/ d/e/f/e/ dG | EgaFDf | e/g/B/d/ c2 z2 :|[M:3/4]"^Trio" !fermata!g2 e2 ge | g/a/g/f/ ef g2 | %22
 a/g/f/e/ c/B/A/G/"^2)" x2 | E/G/c/B/ c4 ::"^O)" d3/2(e/4f/4) .d.d d3/2(e/4f/4) | %25
 e3/2(f/4g/4) ecdc |"^O)" d3/2(e/4f/4) .d.d d3/2(e/4f/4) | e3/2(f/4g/4) ecdc | g>e g/e/g/e/ af | %29
 e/g/B/d/ c2 z2 :| %30
V:2
 !fermata!x6 | x6 | x6 x/ | x6 | x6 | x6 x/4 | x6 | x6 x/4 | x6 | x6 :: x6 | x6 | x6 x/4 | x6 | %14
 x6 | x6 | x6 | x6 | x6 | x6 :|[M:3/4][K:treble] e2 c2 ec | e/f/e/d/cd e2 | g/f/e/d/ A/G/F/E/ D2 | %23
 EE/D/ E4 ::"^O)" B3/2(c/4d/4) BB B3/2(c/4d/4) | c3/2(d/4e/4) cEFE | %26
"^O)" B3/2(c/4d/4) BB B3/2(c/4d/4) | c3/2(d/4e/4) cEFE | e>c e/c/e/c/ fd | cG/F/ E4 :| %30

